images/logos/colorful/mvb.svg

<svg height="28" viewBox="0 0 107 28" width="107" xmlns="http://www.w3.org/2000/svg"><g fill="none" fill-rule="evenodd" transform="translate(-59 -26)"><path d="m0 0h224v80h-224z"/><path d="m118.00469 38.0364196c.00359 3.9983753.00359 7.9949559 0 11.9915366 1.633471.095114 3.52004.6622085 4.943493-.4324993 1.419864-1.1754649 1.714247-3.1459389 1.866824-4.8759361.035901-1.8627978.111292-3.7578985-.326694-5.5830096-.193862-.8344904-.673133-1.6958997-1.527564-1.9866254-1.672962-.488132-3.550556-.1345952-4.956059.8865338m-5.3743-11.9933312c1.791434 0 3.584662-.0017946 5.376095.0017946 0 2.8749539.00359 5.7499077-.001795 8.623067 1.559875-1.2436598 3.591841-1.9166359 5.589702-1.7138458 1.687321.0843463 3.401569.7698846 4.482172 2.1068638 1.245746 1.500288 1.764508 3.4474322 2.008631 5.3443274.269254 2.3222162.262074 4.7000651-.240533 6.991773-.473886 2.1355774-1.619111 4.2442358-3.566711 5.364068-2.247369 1.351336-4.979394 1.3172386-7.512171 1.1682865-2.058892-.1453628-4.108808-.4199371-6.137185-.8021875.003591-9.0286472 0-18.0554998.001795-27.084147zm23.003204 16.4618745c2.798441-5.5040471 5.602267-11.004505 8.411478-16.5031683 4.584489-.0017946 9.170773 0 13.757057-.0017946 2.732026 3.7345686 5.464051 7.4691373 8.197871 11.2019113-2.796646 5.5022525-5.623807 10.986559-8.395323 16.5013737-2.732025-3.732774-5.462256-7.4637535-8.188896-11.2001167-4.595259 0-9.188723 0-13.782187.0017946zm-60.7346255-6.8087055c1.4844842-1.405174 3.3387431-2.5519253 5.4155848-2.7313856 1.5670552-.1363898 3.3154077.0484543 4.5503836 1.1144484 1.2295909 1.0731726 1.6334711 2.7780453 1.6855267 4.3465282.0035901 5.0679586-.001795 10.1359172.0017951 15.2038758-1.7932281.0017946-3.5882513.0017946-5.3814794 0 .0035901-4.8364548 0-9.671115.0017951-14.5057752.0323104-.6640031-.2746386-1.4302985-.9818777-1.595402-1.6478312-.4271155-3.2902774.3086717-4.7262959 1.0516373.0017951 5.0177097-.001795 10.0354194.0017951 15.0513345-1.7932281-.0035892-3.5864562.0017946-5.3796843-.0017946-.0017951-4.8364548.0071801-9.671115-.0035901-14.5075698.0125652-.6263164-.231558-1.3674874-.9011016-1.5577153-1.6532163-.4863374-3.3764385.1866387-4.7980968 1.0175398.00359 5.0159151.001795 10.0318302.001795 15.0477453-1.7950231 0-3.5900462 0-5.3832743.0017946-.0035901-6.7728313-.001795-13.5456627-.001795-20.3166994 1.4988443-.0017946 2.9958935 0 4.4929428 0 .2548933.646057.5044015 1.2957033.7485247 1.9453495 2.1324874-1.9417603 5.2540327-2.8839268 8.0578588-2.0207228 1.2008704.3535367 2.1360775 1.3136493 2.5991934 2.4568113zm14.6169092-2.3867859c2.0714567.008973 4.1429134.0053838 6.2143701.0017946.8921265 4.098873 1.7914331 8.1959514 2.6781745 12.2966191.3248992 1.6277048.6264631 3.262588.8723812 4.9064443.4002902-1.8681816.6695436-3.7614877 1.0806035-5.6278747.841866-3.8583963 1.678347-7.7185871 2.525598-11.5751887 2.069662.0071784 4.141118 0 6.21078.0035892-2.209673 6.7674475-4.397807 13.5438681-6.598505 20.3149048-2.127102-.0017946-4.2542048.0035892-6.3813072-.0017946-2.2096735-6.7710367-4.3942166-13.5474573-6.6020951-20.318494z" fill="#e0011b"/></g></svg>

<?xml version="1.0" encoding="UTF-8"?>
<svg width="107px" height="28px" viewBox="0 0 107 28" version="1.1" xmlns="http://www.w3.org/2000/svg" xmlns:xlink="http://www.w3.org/1999/xlink">
    <!-- Generator: Sketch 50.2 (55047) - http://www.bohemiancoding.com/sketch -->
    <title>9</title>
    <desc>Created with Sketch.</desc>
    <defs></defs>
    <g id="Desktop" stroke="none" stroke-width="1" fill="none" fill-rule="evenodd">
        <g id="logos" transform="translate(-81.000000, -337.000000)">
            <g id="9" transform="translate(22.000000, 311.000000)">
                <rect id="Rectangle-7" x="0" y="0" width="224" height="80"></rect>
                <path d="M118.00469,38.0364196 C118.00828,42.0347949 118.00828,46.0313755 118.00469,50.0279562 C119.638161,50.1230702 121.52473,50.6901647 122.948183,49.5954569 C124.368047,48.419992 124.66243,46.449518 124.815007,44.7195208 C124.850908,42.856723 124.926299,40.9616223 124.488313,39.1365112 C124.294451,38.3020208 123.81518,37.4406115 122.960749,37.1498858 C121.287787,36.6617538 119.410193,37.0152906 118.00469,38.0364196 M112.63039,26.0430884 C114.421824,26.0430884 116.215052,26.0412938 118.006485,26.044883 C118.006485,28.9198369 118.010075,31.7947907 118.00469,34.66795 C119.564565,33.4242902 121.596531,32.7513141 123.594392,32.9541042 C125.281713,33.0384505 126.995961,33.7239888 128.076564,35.060968 C129.32231,36.561256 129.841072,38.5084002 130.085195,40.4052954 C130.354449,42.7275116 130.347269,45.1053605 129.844662,47.3970684 C129.370776,49.5326458 128.225551,51.6413042 126.277951,52.7611364 C124.030582,54.1124724 121.298557,54.078375 118.76578,53.9294229 C116.706888,53.7840601 114.656972,53.5094858 112.628595,53.1272354 C112.632186,44.0985882 112.628595,35.0717356 112.63039,26.0430884 Z M135.633594,42.5049629 C138.432035,37.0009158 141.235861,31.5004579 144.045072,26.0017946 C148.629561,26 153.215845,26.0017946 157.802129,26 C160.534155,29.7345686 163.26618,33.4691373 166,37.2019113 C163.203354,42.7041638 160.376193,48.1884703 157.604677,53.703285 C154.872652,49.970511 152.142421,46.2395315 149.415781,42.5031683 C144.820522,42.5031683 140.227058,42.5031683 135.633594,42.5049629 Z M74.8989685,35.6962574 C76.3834527,34.2910834 78.2377116,33.1443321 80.3145533,32.9648718 C81.8816085,32.828482 83.629961,33.0133261 84.8649369,34.0793202 C86.0945278,35.1524928 86.498408,36.8573655 86.5504636,38.4258484 C86.5540537,43.493807 86.5486686,48.5617656 86.5522587,53.6297242 C84.7590306,53.6315188 82.9640074,53.6315188 81.1707793,53.6297242 C81.1743694,48.7932694 81.1707793,43.9586092 81.1725744,39.123949 C81.2048848,38.4599459 80.8979358,37.6936505 80.1906967,37.528547 C78.5428655,37.1014315 76.9004193,37.8372187 75.4644008,38.5801843 C75.4661959,43.597894 75.4626058,48.6156037 75.4661959,53.6315188 C73.6729678,53.6279296 71.8797397,53.6333134 70.0865116,53.6297242 C70.0847165,48.7932694 70.0936917,43.9586092 70.0829215,39.1221544 C70.0954867,38.495838 69.8513635,37.754667 69.1818199,37.5644391 C67.5286036,37.0781017 65.8053814,37.7510778 64.3837231,38.5819789 C64.3873131,43.597894 64.3855181,48.6138091 64.3855181,53.6297242 C62.590495,53.6297242 60.7954719,53.6297242 59.0022438,53.6315188 C58.9986537,46.8586875 59.0004488,40.0858561 59.0004488,33.3148194 C60.4992931,33.3130248 61.9963423,33.3148194 63.4933916,33.3148194 C63.7482849,33.9608764 63.9977931,34.6105227 64.2419163,35.2601689 C66.3744037,33.3184086 69.495949,32.3762421 72.2997751,33.2394461 C73.5006455,33.5929828 74.4358526,34.5530954 74.8989685,35.6962574 Z M89.5158777,33.3094715 C91.5873344,33.3184445 93.6587911,33.3148553 95.7302478,33.3112661 C96.6223743,37.4101391 97.5216809,41.5072175 98.4084223,45.6078852 C98.7333215,47.23559 99.0348854,48.8704732 99.2808035,50.5143295 C99.6810937,48.6461479 99.9503471,46.7528418 100.361407,44.8864548 C101.203273,41.0280585 102.039754,37.1678677 102.887005,33.3112661 C104.956667,33.3184445 107.028123,33.3112661 109.097785,33.3148553 C106.888112,40.0823028 104.699978,46.8587234 102.49928,53.6297601 C100.372178,53.6279655 98.2450752,53.6333493 96.1179728,53.6279655 C93.9082993,46.8569288 91.7237562,40.0805082 89.5158777,33.3094715 Z" id="Combined-Shape" fill="#E0011B"></path>
            </g>
        </g>
    </g>
</svg>
